lib/healthicons/icons/outline/symbols/clinical_fe.svg

<svg fill="none" height="48" viewBox="0 0 48 48" width="48" xmlns="http://www.w3.org/2000/svg"><g fill="#333"><path d="m11 30c0-.5523.4477-1 1-1h14c.5523 0 1 .4477 1 1s-.4477 1-1 1h-14c-.5523 0-1-.4477-1-1z"/><path d="m12 34c-.5523 0-1 .4477-1 1s.4477 1 1 1h14c.5523 0 1-.4477 1-1s-.4477-1-1-1z"/><path d="m14 21v-3h2v3h3v2h-3v3h-2v-3h-3v-2z"/><g clip-rule="evenodd" fill-rule="evenodd"><path d="m15 6c-1.6569 0-3 1.34315-3 3h-3c-1.65685 0-3 1.3431-3 3v27c0 1.6569 1.34315 3 3 3h20c1.6569 0 3-1.3431 3-3v-27c0-1.6569-1.3431-3-3-3h-3c0-1.65685-1.3431-3-3-3zm8 6c.5523 0 1-.4477 1-1v-2c0-.55228-.4477-1-1-1h-8c-.5523 0-1 .44772-1 1v2c0 .5523.4477 1 1 1zm-11-1c0 1.6569 1.3431 3 3 3h8c1.6569 0 3-1.3431 3-3h3c.5523 0 1 .4477 1 1v27c0 .5523-.4477 1-1 1h-20c-.55228 0-1-.4477-1-1v-27c0-.5523.44772-1 1-1z"/><path d="m36 17c0-1.6569 1.3431-3 3-3s3 1.3431 3 3v20.3028l-3 4.5-3-4.5zm3-1c-.5523 0-1 .4477-1 1v2h2v-2c0-.5523-.4477-1-1-1zm0 22.1972 1-1.5v-15.6972h-2v15.6972z"/></g></g></svg>

<svg width="48" height="48" viewBox="0 0 48 48" fill="none" xmlns="http://www.w3.org/2000/svg">
<path d="M11 30C11 29.4477 11.4477 29 12 29H26C26.5523 29 27 29.4477 27 30C27 30.5523 26.5523 31 26 31H12C11.4477 31 11 30.5523 11 30Z" fill="#333333"/>
<path d="M12 34C11.4477 34 11 34.4477 11 35C11 35.5523 11.4477 36 12 36H26C26.5523 36 27 35.5523 27 35C27 34.4477 26.5523 34 26 34H12Z" fill="#333333"/>
<path d="M14 21V18H16V21H19V23H16V26H14V23H11V21H14Z" fill="#333333"/>
<path fill-rule="evenodd" clip-rule="evenodd" d="M15 6C13.3431 6 12 7.34315 12 9H9C7.34315 9 6 10.3431 6 12V39C6 40.6569 7.34315 42 9 42H29C30.6569 42 32 40.6569 32 39V12C32 10.3431 30.6569 9 29 9H26C26 7.34315 24.6569 6 23 6H15ZM23 12C23.5523 12 24 11.5523 24 11V9C24 8.44772 23.5523 8 23 8H15C14.4477 8 14 8.44772 14 9V11C14 11.5523 14.4477 12 15 12H23ZM12 11C12 12.6569 13.3431 14 15 14H23C24.6569 14 26 12.6569 26 11H29C29.5523 11 30 11.4477 30 12V39C30 39.5523 29.5523 40 29 40H9C8.44772 40 8 39.5523 8 39V12C8 11.4477 8.44772 11 9 11H12Z" fill="#333333"/>
<path fill-rule="evenodd" clip-rule="evenodd" d="M36 17C36 15.3431 37.3431 14 39 14C40.6569 14 42 15.3431 42 17V37.3028L39 41.8028L36 37.3028V17ZM39 16C38.4477 16 38 16.4477 38 17V19H40V17C40 16.4477 39.5523 16 39 16ZM39 38.1972L40 36.6972V21H38V36.6972L39 38.1972Z" fill="#333333"/>
</svg>
